X:397
T: DIE ZEITEN BRUEDER SIND NICHT MEHR
N: F0725
O: Europa, Mitteleuropa, Deutschland
R: Geselligkeits -, Moral - Lied
M: 3/4
L: 1/4
K: D
A, | DCB, | A,G,F, | E,F,G, | F,z
A, | B,A,B, | CB,C | D2F | Dz
A, | DCB, | A,G,F, | E,F,G, | F,z
A, | B,A,B, | CB,C | D2F | Dz
A, | A,DF | ECA, | DB,^G, | A,z
A, | A,DF | ECA, | DB,^G, | A,z
A, | F,D,A, | D2F | EDC | Dz
A, | F,D,A, | D2F | EDC | Dz

